X:1
T: Glenfiddich
C:William Marshall
R:Strathspey
Q: 128
K:A
M:4/4
L:1/16
|:c2|A4 c3A e3A c3A|E3A c3A B4 B3c|AAA2 c3A e3A c3A|F3d c3B A4 A2c2|
A4 c3A e3A c3A|E3A c3A B4 B3c|AAA2 c3A e3A c3A|F3d c3B A4 A2fg|
a3e f3d e2c2 A2g2|a3e f3b g4 e2fg|agfe f3d e3c B3A|F3d c3B A4 A2c2|
A3E F3E A3E F3E|D3F C3E B,4 B,4|A3E F3E A3E F3E|F3d c3B A4 A2:|
|:"extra, for a 40 bar tune"d2|c3d ec3 ac3 ec3|fd3 ec3 B4 B2d2|c3d ec3 fd3 ec3|G3d c3B A4 A2:|
